X:1729
T:Mitchell's Hornpipe
M:C|
L:1/8
N:"collected by J. O'Neill"
B:O'Neill's 1729
R:Hornpipe
Z:"Transcribed by Bob Safranek, rjs@gsp.org"
K:D
    A2 | d>cd>c (B>d) A2 | d>cd>c (B>d) A2 | d>cd>e  f>df>g  | a>ge>c d>AB>c   |
         d>cd>c (B>d) A2 | d>cd>e (B>d) A2 | d>cd>e  f>df>g  | a>ge>c d2      :|
|: d>e | f2 f2    e2  e2 | d2 d2   c3   z  | B>AB>d (c<A) F2 | B>AB>d (c<A) F2 |
         f2 f2    e2  e2 | d2 d2   c3   z  | d>cd>e  f>df>g  | a>ge>c d2      :|


